Numix-Light/16/status/indicator-keyboard-De-4.svg

<?xml version="1.0" encoding="UTF-8" standalone="no"?>
<svg
   xmlns:dc="http://purl.org/dc/elements/1.1/"
   xmlns:cc="http://creativecommons.org/ns#"
   xmlns:rdf="http://www.w3.org/1999/02/22-rdf-syntax-ns#"
   xmlns:svg="http://www.w3.org/2000/svg"
   xmlns="http://www.w3.org/2000/svg"
   xmlns:sodipodi="http://sodipodi.sourceforge.net/DTD/sodipodi-0.dtd"
   xmlns:inkscape="http://www.inkscape.org/namespaces/inkscape"
   viewBox="0 0 16 16"
   id="svg2"
   version="1.1"
   inkscape:version="0.91 r13725"
   sodipodi:docname="indicator-keyboard-De-4.svg">
  <metadata
     id="metadata14">
    <rdf:RDF>
      <cc:Work
         rdf:about="">
        <dc:format>image/svg+xml</dc:format>
        <dc:type
           rdf:resource="http://purl.org/dc/dcmitype/StillImage" />
      </cc:Work>
    </rdf:RDF>
  </metadata>
  <defs
     id="defs12" />
  <sodipodi:namedview
     pagecolor="#ffffff"
     bordercolor="#666666"
     borderopacity="1"
     objecttolerance="10"
     gridtolerance="10"
     guidetolerance="10"
     inkscape:pageopacity="0"
     inkscape:pageshadow="2"
     inkscape:window-width="640"
     inkscape:window-height="480"
     id="namedview10"
     showgrid="false"
     inkscape:zoom="14.75"
     inkscape:cx="8"
     inkscape:cy="8"
     inkscape:window-x="65"
     inkscape:window-y="24"
     inkscape:window-maximized="0"
     inkscape:current-layer="svg2" />
  <path
     style="fill:#353535;fill-opacity:1"
     d="M 1.5996094 0 C 0.71320937 2.9605947e-16 0 0.71320937 0 1.5996094 L 0 14.400391 C 2.9605947e-16 15.286791 0.71320937 16 1.5996094 16 L 14.400391 16 C 15.286791 16 16 15.286791 16 14.400391 L 16 1.5996094 C 16 0.71320937 15.286791 0 14.400391 0 L 1.5996094 0 z M 2.796875 4.8046875 C 3.300875 4.8046875 3.7635937 4.8719062 4.1835938 5.0039062 C 4.6035938 5.1359063 4.9636719 5.3336562 5.2636719 5.5976562 C 5.5696719 5.8616562 5.8066094 6.1918906 5.9746094 6.5878906 C 6.1426094 6.9838906 6.2265625 7.4446562 6.2265625 7.9726562 C 6.2265625 8.5066563 6.1426094 8.9711875 5.9746094 9.3671875 C 5.8066094 9.7631875 5.5696719 10.093422 5.2636719 10.357422 C 4.9636719 10.621422 4.6035937 10.819172 4.1835938 10.951172 C 3.7635938 11.083172 3.300875 11.150391 2.796875 11.150391 C 2.544875 11.150391 2.2818594 11.135469 2.0058594 11.105469 C 1.7298594 11.081469 1.4873438 11.042281 1.2773438 10.988281 L 1.2773438 4.9765625 C 1.4873438 4.9165625 1.7298594 4.8736094 2.0058594 4.8496094 C 2.2818594 4.8196094 2.544875 4.8046875 2.796875 4.8046875 z M 2.8691406 5.3359375 C 2.5451406 5.3359375 2.3082031 5.3452812 2.1582031 5.3632812 C 2.0142031 5.3812813 1.9246719 5.3924375 1.8886719 5.3984375 L 1.8886719 10.556641 C 1.9246719 10.562641 2.0142031 10.573797 2.1582031 10.591797 C 2.3082031 10.609797 2.5451406 10.619141 2.8691406 10.619141 C 3.3191406 10.619141 3.7128281 10.559453 4.0488281 10.439453 C 4.3848281 10.313453 4.6665312 10.136203 4.8945312 9.9082031 C 5.1225312 9.6802031 5.2942031 9.4040781 5.4082031 9.0800781 C 5.5222031 8.7500781 5.578125 8.3806562 5.578125 7.9726562 C 5.578125 7.5646563 5.5222031 7.199 5.4082031 6.875 C 5.2942031 6.551 5.1225313 6.274875 4.8945312 6.046875 C 4.6665313 5.818875 4.3848281 5.6453906 4.0488281 5.5253906 C 3.7128281 5.3993906 3.3191406 5.3359375 2.8691406 5.3359375 z M 9.3066406 6.3359375 C 9.8766408 6.3359375 10.330016 6.5205781 10.666016 6.8925781 C 11.008016 7.2645781 11.177734 7.8373281 11.177734 8.6113281 C 11.177734 8.6593281 11.175922 8.7078594 11.169922 8.7558594 C 11.169922 8.8038594 11.166156 8.848625 11.160156 8.890625 L 7.8925781 8.890625 C 7.9105781 9.460625 8.0524062 9.8990779 8.3164062 10.205078 C 8.5804062 10.511078 9.0001719 10.664062 9.5761719 10.664062 C 9.894172 10.664062 10.146031 10.634219 10.332031 10.574219 C 10.518031 10.514219 10.652328 10.463875 10.736328 10.421875 L 10.845703 10.925781 C 10.761703 10.973781 10.601187 11.029703 10.367188 11.095703 C 10.139188 11.161703 9.8705939 11.195312 9.5585938 11.195312 C 9.1505938 11.195312 8.8016719 11.135625 8.5136719 11.015625 C 8.2256719 10.895625 7.9887344 10.727719 7.8027344 10.511719 C 7.6167344 10.295719 7.4824375 10.040094 7.3984375 9.7460938 C 7.3144375 9.4460938 7.2714844 9.119625 7.2714844 8.765625 C 7.2714844 8.357625 7.3293594 8.003125 7.4433594 7.703125 C 7.5633594 7.397125 7.7163438 7.1415 7.9023438 6.9375 C 8.0943437 6.7335 8.3107813 6.5842812 8.5507812 6.4882812 C 8.7967813 6.3862812 9.0486406 6.3359375 9.3066406 6.3359375 z M 9.3144531 6.8574219 C 9.1044531 6.8574219 8.9160469 6.8984219 8.7480469 6.9824219 C 8.5860469 7.0664219 8.4424063 7.1802187 8.3164062 7.3242188 C 8.1964062 7.4622188 8.0993438 7.6245469 8.0273438 7.8105469 C 7.9613437 7.9965469 7.9221563 8.1924844 7.9101562 8.3964844 L 10.574219 8.3964844 C 10.562219 7.9104844 10.448422 7.5317188 10.232422 7.2617188 C 10.016422 6.9917187 9.7104531 6.8574219 9.3144531 6.8574219 z M 13.822266 8.8417969 L 14.220703 8.8417969 L 14.220703 11.486328 L 14.722656 11.486328 L 14.722656 11.796875 L 14.220703 11.796875 L 14.220703 12.896484 L 13.845703 12.896484 L 13.845703 11.796875 L 12.009766 11.796875 L 12.009766 11.5625 C 12.079966 11.3753 12.175981 11.163688 12.300781 10.929688 C 12.429481 10.695687 12.574475 10.456638 12.734375 10.210938 C 12.894275 9.9652374 13.068659 9.7261874 13.255859 9.4921875 C 13.443059 9.2542875 13.631166 9.0367969 13.822266 8.8417969 z M 13.845703 9.2695312 C 13.709203 9.4099313 13.570087 9.5706063 13.429688 9.7539062 C 13.289287 9.9372063 13.156044 10.129225 13.027344 10.328125 C 12.902544 10.523125 12.784981 10.719069 12.675781 10.917969 C 12.566581 11.116869 12.474491 11.306928 12.400391 11.486328 L 13.845703 11.486328 L 13.845703 9.2695312 z "
     id="path4" />
</svg>

<svg xmlns="http://www.w3.org/2000/svg" viewBox="0 0 16 16">
 <path d="m 1.6 0 c -0.886 0 -1.6 0.713 -1.6 1.6 l 0 12.801 c 0 0.886 0.713 1.6 1.6 1.6 l 12.801 0 c 0.886 0 1.6 -0.713 1.6 -1.6 l 0 -12.801 c 0 -0.886 -0.713 -1.6 -1.6 -1.6 l -12.801 0 z m 1.197 4.805 c 0.504 0 0.967 0.067 1.387 0.199 c 0.42 0.132 0.78 0.33 1.08 0.594 c 0.306 0.264 0.543 0.594 0.711 0.99 c 0.168 0.396 0.252 0.857 0.252 1.385 c 0 0.534 -0.084 0.999 -0.252 1.395 c -0.168 0.396 -0.405 0.726 -0.711 0.99 c -0.3 0.264 -0.66 0.462 -1.08 0.594 c -0.42 0.132 -0.883 0.199 -1.387 0.199 c -0.252 0 -0.515 -0.015 -0.791 -0.045 c -0.276 -0.024 -0.519 -0.063 -0.729 -0.117 l 0 -6.01 c 0.21 -0.06 0.453 -0.103 0.729 -0.127 c 0.276 -0.03 0.539 -0.045 0.791 -0.045 z m 0.072 0.531 c -0.324 0 -0.561 0.009 -0.711 0.027 c -0.144 0.018 -0.234 0.029 -0.27 0.035 l 0 5.158 c 0.036 0.006 0.126 0.017 0.27 0.035 c 0.15 0.018 0.387 0.027 0.711 0.027 c 0.45 0 0.844 -0.06 1.18 -0.18 c 0.336 -0.126 0.618 -0.303 0.846 -0.531 c 0.228 -0.228 0.4 -0.504 0.514 -0.828 c 0.114 -0.33 0.17 -0.699 0.17 -1.107 c 0 -0.408 -0.056 -0.774 -0.17 -1.098 c -0.114 -0.324 -0.286 -0.6 -0.514 -0.828 c -0.228 -0.228 -0.51 -0.401 -0.846 -0.521 c -0.336 -0.126 -0.73 -0.189 -1.18 -0.189 z m 6.438 1 c 0.57 0 1.023 0.185 1.359 0.557 c 0.342 0.372 0.512 0.945 0.512 1.719 c 0 0.048 -0.002 0.097 -0.008 0.145 c 0 0.048 -0.004 0.093 -0.01 0.135 l -3.268 0 c 0.018 0.57 0.16 1.01 0.424 1.314 c 0.264 0.306 0.684 0.459 1.26 0.459 c 0.318 0 0.57 -0.03 0.756 -0.09 c 0.186 -0.06 0.32 -0.11 0.404 -0.152 l 0.109 0.504 c -0.084 0.048 -0.245 0.104 -0.479 0.17 c -0.228 0.066 -0.497 0.1 -0.809 0.1 c -0.408 0 -0.757 -0.06 -1.045 -0.18 c -0.288 -0.12 -0.525 -0.288 -0.711 -0.504 c -0.186 -0.216 -0.32 -0.472 -0.404 -0.766 c -0.084 -0.3 -0.127 -0.626 -0.127 -0.98 c 0 -0.408 0.058 -0.762 0.172 -1.063 c 0.12 -0.306 0.273 -0.562 0.459 -0.766 c 0.192 -0.204 0.408 -0.353 0.648 -0.449 c 0.246 -0.102 0.498 -0.152 0.756 -0.152 z m 0.008 0.521 c -0.21 0 -0.398 0.041 -0.566 0.125 c -0.162 0.084 -0.306 0.198 -0.432 0.342 c -0.12 0.138 -0.217 0.3 -0.289 0.486 c -0.066 0.186 -0.105 0.382 -0.117 0.586 l 2.664 0 c -0.012 -0.486 -0.126 -0.865 -0.342 -1.135 c -0.216 -0.27 -0.522 -0.404 -0.918 -0.404 z m 4.508 1.984 l 0.398 0 l 0 2.645 l 0.502 0 l 0 0.311 l -0.502 0 l 0 1.1 l -0.375 0 l 0 -1.1 l -1.836 0 l 0 -0.234 c 0.07 -0.187 0.166 -0.399 0.291 -0.633 c 0.129 -0.234 0.274 -0.473 0.434 -0.719 c 0.16 -0.246 0.334 -0.485 0.521 -0.719 c 0.187 -0.238 0.375 -0.455 0.566 -0.65 z m 0.023 0.428 c -0.136 0.14 -0.276 0.301 -0.416 0.484 c -0.14 0.183 -0.274 0.375 -0.402 0.574 c -0.125 0.195 -0.242 0.391 -0.352 0.59 c -0.109 0.199 -0.201 0.389 -0.275 0.568 l 1.445 0 l 0 -2.217 z" style="fill:#353535;fill-opacity:1"/>
</svg>
